X:1
T:Dean Brig o' Edinburgh
T:Dean Brig o' Edinburgh
T:Miss Gray of Carse
T:Airchie Allan (1794-1837)
C:Airchie Allan (1794-1837)
L:1/8
M:4/4
K:Eb
V:1 treble 
V:1
 G | B>c B<e B<G G>F | E>F E/F/G/F/ E<B, B,2 |{A,B,} C7/4E/4 B,7/4E/4 A,7/4E/4 G,7/4E/4 | %4
 C<F F>E (D/E/)F/D/ B,2 | B>c B<e B<G G>F | E>F E/F/G/F/ E<B, B,2 |{A,B,} C>A B,>G A,>F G,>c | %8
 G>c BD{D} E2- E || F | g<e e>g f<d d>f | e<c c>=a b<B B>_d | c<A A>c B<G G>B | %13
 c<F F>E (D/E/)F/D/ B,D | G<E E>G F<D D>F | E<C C=A B<B, B,2 |{A,B,} C>A B,>G A,>F G,>c | %17
 G>c BD{D} E2- E |] %18

